X:1
T:Title
%%score { ( 1 3 ) | ( 2 4 ) }
L:1/8
M:4/4
K:Ab
V:1 treble nm="Grand Piano"
V:3 treble 
V:2 bass 
V:4 bass 
V:1
 z4 z2[Q:1/4=100] CD | E6 z2 | [DA]2 [DG]4 [EG][FA] | [GB]3 [Bd] [Ac]2 [GB]2 |[M:3/4] c6 | %5
[M:1/4] CD |[M:4/4] E6 z2 | [DA]2 [DG]4 [EG][FA] | [GB]3 [Bd] [Ac]2 [DGB]2 | [CA]6 z2 | %10
 e3 d F2 G2 | [CE]2 [CA]4[K:bass][K:treble] z2 | e3 c d2 c2 | B6 z2 | [Ec]6 z2 | %15
 [FA]2[K:bass] [DF]4[K:treble] z2 | E3 A A2 G2 |[M:3/4] [CEA]6 |] %18
V:2
 z4 z2 A,B, | C6 z2 | [B,,E,]2 [B,,E,]4 [E,B,][E,B,] | [E,E]3 [E,E] [E,E]2 [E,E]2 | %4
[M:3/4][K:treble] [A,EA]6 |[M:1/4] A,[K:bass]B, |[M:4/4] C6 z2 | [B,,E,]2 [B,,E,]4 [E,B,][E,B,] | %8
 [E,E]3 [E,E] [E,E]2 E,2 | A,,6 z2 | G3 G D2 D2 | A,,A,,[A,,E,]A,, A,,A,,[K:treble][A,E][A,B,E] | %12
 [A,CA]3 [A,E] [G,B,E]2[K:bass] [A,E]2 | E6 z2 | [A,,A,]A,,A,,A,, A,,[A,,A,][C,G,][C,G,] | %15
 [D,F,]D,D,D, D,D,[D,A,D][D,A,D] | [E,A,C]3 [E,CE] [E,B,E]2 [E,DE]2 |[M:3/4] A,,6 |] %18
V:3
 x8 | z2 A,A, A,[Ec][DB][CA] | x8 | x8 |[M:3/4] x6 |[M:1/4] x2 |[M:4/4] z2 A,A, A,[Ec][DB][CA] | %7
 x8 | x8 | x8 | x8 | A,A, z[K:bass] E, E,E,[K:treble]cd | x8 | z2 G,G, G,2 [A,EA][EB] | %14
 z A,A,A, A,[Ec][=Ec][EB] | z[K:bass] F,A,A, A,A,[K:treble]FF | x8 |[M:3/4] x6 |] %18
V:4
 x8 | z2 A,,A,, A,,[A,,A,][A,,E,][A,,E,] | x8 | x8 |[M:3/4][K:treble] x6 |[M:1/4] x[K:bass] x | %6
[M:4/4] z2 A,,A,, A,,[A,,A,][A,,E,][A,,E,] | x8 | x8 | x8 | x8 | x6[K:treble] x2 | x6[K:bass] x2 | %13
 [E,G,]2 E,E, E,D,C,[B,,G,] | x8 | x8 | x8 |[M:3/4] x6 |] %18

